; generated by PrusaSlicer 2.5.2+win64 on 2023-06-19 at 06:40:42 UTC

; 

; external perimeters extrusion width = 0.61mm
; perimeters extrusion width = 0.65mm
; infill extrusion width = 0.70mm
; solid infill extrusion width = 0.65mm
; top infill extrusion width = 0.60mm
; support material extrusion width = 0.55mm
; first layer extrusion width = 0.65mm

M73 P0 R7
M201 X9000 Y9000 Z500 E10000 ; sets maximum accelerations, mm/sec^2
M203 X500 Y500 Z12 E120 ; sets maximum feedrates, mm / sec
M204 P2000 R1500 T2000 ; sets acceleration (P, T) and retract acceleration (R), mm/sec^2
M205 X10.00 Y10.00 Z0.20 E4.50 ; sets the jerk limits, mm/sec
M205 S0 T0 ; sets the minimum extruding and travel feed rate, mm/sec
M107
;TYPE:Custom
M862.3 P "MK2.5S" ; printer model check
M862.1 P0.6 ; nozzle diameter check
M115 U3.11.0 ; tell printer latest fw version
G90 ; use absolute coordinates
M83 ; extruder relative mode
M104 S230 ; set extruder temp
M140 S85 ; set bed temp
M190 S85 ; wait for bed temp
M109 S230 ; wait for extruder temp
G28 W ; home all without mesh bed level
G80 ; mesh bed leveling

G1 Z0.2 F720
G1 Y-3 F1000 ; go outside print area
G92 E0
G1 X60 E9 F1000 ; intro line
G1 X100 E12.5 F1000 ; intro line

G92 E0
G21 ; set units to millimeters
G90 ; use absolute coordinates
M83 ; use relative distances for extrusion
M900 K0.04 ; Filament gcode LA 1.5
M900 K24 ; Filament gcode LA 1.0
M107
;LAYER_CHANGE
;Z:0.2
;HEIGHT:0.2
;BEFORE_LAYER_CHANGE
G92 E0.0
;0.2


G1 E-1 F2100
M73 P1 R7
G1 Z.2 F720
;AFTER_LAYER_CHANGE
;0.2
G1 Z.4
G1 X115.654 Y96.768 F10800
G1 Z.2 F720
G1 E1 F1500
M204 S800
;TYPE:Skirt/Brim
;WIDTH:0.65
G1 F1200
G1 X116.566 Y95.836 E.06581
G1 X117.57 Y95.005 E.0658
G1 X118.655 Y94.283 E.0658
G1 X119.81 Y93.679 E.06581
G1 X121.022 Y93.198 E.0658
G1 X122.277 Y92.847 E.0658
G1 X123.563 Y92.629 E.06581
G1 X124.864 Y92.546 E.0658
G1 X126.037 Y92.594 E.0593
G1 X127.456 Y92.79 E.07229
G1 X128.978 Y93.198 E.07956
G1 X129.941 Y93.568 E.05205
G1 X131.109 Y94.147 E.0658
G1 X132.43 Y95.005 E.07956
G1 X133.232 Y95.654 E.05205
G1 X134.145 Y96.547 E.06451
G1 X134.995 Y97.57 E.0671
G1 X135.853 Y98.891 E.07955
G1 X136.321 Y99.81 E.05205
G1 X136.802 Y101.022 E.0658
G1 X137.153 Y102.277 E.0658
G1 X137.386 Y103.675 E.07155
G1 X140.504 Y131.055 E1.39099
G1 X140.571 Y132.243 E.06007
M73 P2 R7
G1 X140.517 Y133.545 E.06581
G1 X140.339 Y134.758 E.0619
G1 X139.919 Y136.357 E.08344
G1 X139.439 Y137.569 E.0658
G1 X138.834 Y138.724 E.0658
G1 X138.112 Y139.809 E.0658
G1 X137.281 Y140.813 E.06581
G1 X136.349 Y141.725 E.0658
G1 X135.548 Y142.374 E.05205
G1 X134.462 Y143.096 E.0658
G1 X133.307 Y143.7 E.06581
G1 X132.096 Y144.181 E.0658
G1 X130.84 Y144.532 E.0658
G1 X129.555 Y144.75 E.06581
G1 X128.254 Y144.833 E.0658
G1 X126.68 Y144.75 E.07956
G1 X125.662 Y144.589 E.05205
G1 X124.399 Y144.265 E.0658
G1 X122.927 Y143.7 E.07956
G1 X122.009 Y143.232 E.05205
G1 X120.908 Y142.534 E.0658
G1 X119.683 Y141.543 E.07956
G1 X118.954 Y140.813 E.05204
G1 X118.171 Y139.87 E.0619
G1 X117.401 Y138.724 E.06969
G1 X116.685 Y137.32 E.07956
G1 X116.316 Y136.357 E.05204
G1 X115.964 Y135.102 E.0658
G1 X115.731 Y133.704 E.07155
G1 X112.614 Y106.325 E1.39099
G1 X112.546 Y105.136 E.06007
G1 X112.6 Y103.834 E.06581
G1 X112.79 Y102.544 E.0658
G1 X113.114 Y101.281 E.0658
G1 X113.568 Y100.059 E.06581
G1 X114.147 Y98.891 E.0658
G1 X114.845 Y97.79 E.0658
G1 X115.598 Y96.839 E.06126
M204 S1000
; printing object drill_jig_back_plug.STL id:0 copy 0
;WIPE_START
G1 F8640
G1 X116.566 Y95.836 E-.3217
G1 X117.57 Y95.005 E-.30099
G1 X118.655 Y94.283 E-.301
G1 X118.756 Y94.23 E-.02631
;WIPE_END
G1 E-.05 F2100
G1 Z.4 F720
G1 X132.432 Y104.151 F10800
G1 Z.2 F720
G1 E1 F1500
M204 S800
;TYPE:Perimeter
;WIDTH:0.649999
G1 F1200
G1 X132.48 Y104.608 E.02321
G1 X132.48 Y105.392 E.03958
G1 X132.398 Y106.172 E.03958
G1 X132.235 Y106.939 E.03958
G1 X131.993 Y107.684 E.03958
G1 X131.674 Y108.401 E.03958
M73 P3 R7
G1 X131.282 Y109.079 E.03958
G1 X130.821 Y109.714 E.03958
G1 X130.296 Y110.296 E.03958
G1 X129.714 Y110.821 E.03958
G1 X129.079 Y111.282 E.03958
G1 X128.401 Y111.674 E.03958
G1 X127.684 Y111.993 E.03958
G1 X126.939 Y112.235 E.03958
G1 X126.172 Y112.398 E.03958
G1 X125.392 Y112.48 E.03958
G1 X124.608 Y112.48 E.03958
G1 X123.828 Y112.398 E.03958
G1 X123.061 Y112.235 E.03958
G1 X122.316 Y111.993 E.03958
G1 X121.599 Y111.674 E.03958
G1 X120.921 Y111.282 E.03958
G1 X120.286 Y110.821 E.03958
G1 X119.704 Y110.296 E.03958
G1 X119.179 Y109.714 E.03958
G1 X118.718 Y109.079 E.03958
G1 X118.326 Y108.401 E.03958
G1 X118.007 Y107.684 E.03958
G1 X117.765 Y106.939 E.03958
G1 X117.602 Y106.172 E.03958
G1 X117.52 Y105.392 E.03958
G1 X117.52 Y104.608 E.03958
G1 X117.602 Y103.828 E.03958
G1 X117.765 Y103.061 E.03958
G1 X118.007 Y102.316 E.03958
G1 X118.326 Y101.599 E.03958
G1 X118.718 Y100.921 E.03958
G1 X119.179 Y100.286 E.03958
G1 X119.704 Y99.704 E.03958
G1 X120.286 Y99.179 E.03958
G1 X120.921 Y98.718 E.03958
G1 X121.599 Y98.326 E.03958
G1 X122.316 Y98.007 E.03958
G1 X123.061 Y97.765 E.03957
G1 X123.828 Y97.602 E.03958
G1 X124.608 Y97.52 E.03958
G1 X125.392 Y97.52 E.03958
G1 X126.172 Y97.602 E.03958
G1 X126.939 Y97.765 E.03958
G1 X127.684 Y98.007 E.03958
G1 X128.401 Y98.326 E.03958
G1 X129.079 Y98.718 E.03957
G1 X129.714 Y99.179 E.03958
G1 X130.296 Y99.704 E.03958
G1 X130.821 Y100.286 E.03958
G1 X131.282 Y100.921 E.03958
G1 X131.674 Y101.599 E.03958
G1 X131.993 Y102.316 E.03958
G1 X132.235 Y103.061 E.03957
G1 X132.398 Y103.828 E.03958
G1 X132.423 Y104.061 E.01182
M204 S1000
G1 X133.035 Y104.087 F10800
M204 S800
G1 F1200
G1 X133.086 Y104.576 E.02481
G1 X133.086 Y105.424 E.04278
G1 X132.998 Y106.267 E.04278
G1 X132.821 Y107.096 E.04278
G1 X132.56 Y107.902 E.04278
G1 X132.215 Y108.676 E.04278
G1 X131.791 Y109.41 E.04278
G1 X131.293 Y110.096 E.04278
G1 X130.726 Y110.726 E.04278
G1 X130.096 Y111.293 E.04278
G1 X129.41 Y111.791 E.04279
G1 X128.676 Y112.215 E.04278
G1 X127.902 Y112.56 E.04279
G1 X127.096 Y112.821 E.04278
G1 X126.267 Y112.998 E.04278
G1 X125.424 Y113.086 E.04278
G1 X124.576 Y113.086 E.04278
G1 X123.733 Y112.998 E.04278
G1 X122.904 Y112.821 E.04278
G1 X122.098 Y112.56 E.04278
G1 X121.324 Y112.215 E.04279
G1 X120.59 Y111.791 E.04278
G1 X119.904 Y111.293 E.04279
G1 X119.274 Y110.726 E.04278
G1 X118.707 Y110.096 E.04278
G1 X118.209 Y109.41 E.04279
G1 X117.785 Y108.676 E.04278
G1 X117.44 Y107.902 E.04279
G1 X117.179 Y107.096 E.04278
G1 X117.002 Y106.267 E.04278
G1 X116.914 Y105.424 E.04278
G1 X116.914 Y104.576 E.04278
G1 X117.002 Y103.733 E.04278
G1 X117.179 Y102.904 E.04278
G1 X117.44 Y102.098 E.04278
G1 X117.785 Y101.324 E.04278
G1 X118.209 Y100.59 E.04278
G1 X118.707 Y99.904 E.04278
G1 X119.274 Y99.274 E.04278
G1 X119.904 Y98.707 E.04278
G1 X120.59 Y98.209 E.04278
G1 X121.324 Y97.785 E.04278
G1 X122.098 Y97.44 E.04279
G1 X122.904 Y97.179 E.04278
G1 X123.733 Y97.002 E.04278
G1 X124.576 Y96.914 E.04278
G1 X125.424 Y96.914 E.04278
G1 X126.267 Y97.002 E.04278
G1 X127.096 Y97.179 E.04278
G1 X127.902 Y97.44 E.04278
G1 X128.676 Y97.785 E.04279
G1 X129.41 Y98.209 E.04278
G1 X130.096 Y98.707 E.04279
G1 X130.726 Y99.274 E.04278
G1 X131.293 Y99.904 E.04278
G1 X131.791 Y100.59 E.04278
G1 X132.215 Y101.324 E.04278
G1 X132.56 Y102.098 E.04279
G1 X132.821 Y102.904 E.04278
G1 X132.998 Y103.733 E.04278
G1 X133.025 Y103.998 E.01343
M204 S1000
G1 X133.638 Y104.024 F10800
M204 S800
M73 P4 R7
G1 F1200
G1 X133.692 Y104.544 E.02642
G1 X133.692 Y105.456 E.04599
G1 X133.597 Y106.362 E.04599
G1 X133.408 Y107.253 E.04599
G1 X133.126 Y108.119 E.04599
G1 X132.756 Y108.952 E.04599
G1 X132.3 Y109.741 E.04599
G1 X131.765 Y110.478 E.04599
G1 X131.155 Y111.155 E.04599
G1 X130.478 Y111.765 E.04599
G1 X129.741 Y112.3 E.04599
G1 X128.952 Y112.756 E.04599
G1 X128.119 Y113.126 E.04599
G1 X127.253 Y113.408 E.04599
G1 X126.362 Y113.597 E.04599
G1 X125.456 Y113.692 E.04599
G1 X124.544 Y113.692 E.04599
G1 X123.638 Y113.597 E.04599
G1 X122.747 Y113.408 E.04599
G1 X121.881 Y113.126 E.04599
G1 X121.048 Y112.756 E.04599
G1 X120.259 Y112.3 E.04599
G1 X119.522 Y111.765 E.04599
G1 X118.845 Y111.155 E.04599
G1 X118.235 Y110.478 E.04599
G1 X117.7 Y109.741 E.04599
G1 X117.244 Y108.952 E.04599
G1 X116.874 Y108.119 E.04599
G1 X116.592 Y107.253 E.04599
G1 X116.403 Y106.362 E.04599
G1 X116.308 Y105.456 E.04599
G1 X116.308 Y104.544 E.04599
G1 X116.403 Y103.638 E.04599
G1 X116.592 Y102.747 E.04599
G1 X116.874 Y101.881 E.04599
G1 X117.244 Y101.048 E.04599
G1 X117.7 Y100.259 E.04599
G1 X118.235 Y99.522 E.04599
G1 X118.845 Y98.845 E.04599
G1 X119.522 Y98.235 E.04599
G1 X120.259 Y97.7 E.04599
G1 X121.048 Y97.244 E.04599
G1 X121.881 Y96.874 E.04599
G1 X122.747 Y96.592 E.04599
G1 X123.638 Y96.403 E.04599
G1 X124.544 Y96.308 E.04599
G1 X125.456 Y96.308 E.04599
G1 X126.362 Y96.403 E.04599
G1 X127.253 Y96.592 E.04599
G1 X128.119 Y96.874 E.04599
G1 X128.952 Y97.244 E.04599
G1 X129.741 Y97.7 E.04599
G1 X130.478 Y98.235 E.04599
G1 X131.155 Y98.845 E.04599
G1 X131.765 Y99.522 E.04599
G1 X132.3 Y100.259 E.04599
G1 X132.756 Y101.048 E.04599
G1 X133.126 Y101.881 E.04599
G1 X133.408 Y102.747 E.04599
G1 X133.597 Y103.638 E.04599
G1 X133.628 Y103.934 E.01503
M204 S1000
G1 X134.264 Y103.968 F10800
M204 S800
;TYPE:External perimeter
G1 F1200
G1 X134.324 Y105 E.05218
G1 X134.273 Y105.975 E.04927
G1 X134.121 Y106.939 E.04927
G1 X133.868 Y107.881 E.04927
G1 X133.518 Y108.793 E.04927
G1 X133.075 Y109.662 E.04927
G1 X132.544 Y110.481 E.04927
G1 X131.929 Y111.239 E.04927
G1 X131.239 Y111.929 E.04927
G1 X130.481 Y112.544 E.04927
G1 X129.662 Y113.075 E.04927
G1 X128.793 Y113.518 E.04927
G1 X127.881 Y113.868 E.04927
G1 X126.939 Y114.121 E.04927
G1 X125.975 Y114.273 E.04927
G1 X125 Y114.324 E.04927
G1 X124.025 Y114.273 E.04927
G1 X123.061 Y114.121 E.04927
G1 X122.119 Y113.868 E.04927
G1 X121.207 Y113.518 E.04927
G1 X120.338 Y113.075 E.04927
G1 X119.519 Y112.544 E.04927
G1 X118.761 Y111.929 E.04927
G1 X118.071 Y111.239 E.04927
G1 X117.456 Y110.481 E.04927
G1 X116.925 Y109.662 E.04927
G1 X116.482 Y108.793 E.04927
G1 X116.132 Y107.881 E.04927
G1 X115.879 Y106.939 E.04927
G1 X115.727 Y105.975 E.04927
G1 X115.676 Y105 E.04927
G1 X115.727 Y104.025 E.04927
G1 X115.879 Y103.061 E.04927
G1 X116.132 Y102.119 E.04927
G1 X116.482 Y101.207 E.04927
G1 X116.925 Y100.338 E.04927
G1 X117.456 Y99.519 E.04927
G1 X118.071 Y98.761 E.04927
G1 X118.761 Y98.071 E.04927
G1 X119.519 Y97.456 E.04927
G1 X120.338 Y96.925 E.04927
G1 X121.207 Y96.482 E.04927
M73 P5 R7
G1 X122.119 Y96.132 E.04927
G1 X123.061 Y95.879 E.04927
G1 X124.025 Y95.727 E.04927
G1 X125 Y95.676 E.04927
G1 X125.975 Y95.727 E.04927
G1 X126.939 Y95.879 E.04927
G1 X127.881 Y96.132 E.04927
G1 X128.793 Y96.482 E.04927
G1 X129.662 Y96.925 E.04927
G1 X130.481 Y97.456 E.04927
G1 X131.239 Y98.071 E.04927
G1 X131.929 Y98.761 E.04927
G1 X132.544 Y99.519 E.04927
G1 X133.075 Y100.338 E.04927
G1 X133.518 Y101.207 E.04927
G1 X133.868 Y102.119 E.04927
G1 X134.121 Y103.061 E.04927
G1 X134.25 Y103.879 E.0418
M204 S1000
G1 X133.78 Y104.323 F10800
;WIPE_START
G1 F8640
G1 X134.324 Y105 E-.25937
G1 X134.273 Y105.975 E-.22536
G1 X134.121 Y106.939 E-.22536
G1 X133.868 Y107.881 E-.22536
G1 X133.845 Y107.94 E-.01456
;WIPE_END
G1 E-.05 F2100
G1 Z.4 F720
G1 X131.391 Y101.445 F10800
G1 Z.2 F720
G1 E1 F1500
M204 S800
;TYPE:Solid infill
;WIDTH:0.654462
G1 F1200
G1 X129.697 Y99.751 E.12182
G1 X129.141 Y99.301 E.03639
G1 X128.522 Y98.899 E.03749
G1 X127.865 Y98.564 E.03749
G1 X127.508 Y98.427 E.01945
G1 X131.573 Y102.492 E.29229
G1 X131.7 Y102.823 E.01805
G1 X131.891 Y103.535 E.03749
G1 X131.917 Y103.701 E.00852
G1 X126.299 Y98.083 E.40399
G1 X125.736 Y97.994 E.02897
G1 X125.323 Y97.972 E.02102
G1 X132.028 Y104.677 E.48211
G1 X132.045 Y105 E.01647
G1 X132.017 Y105.531 E.02701
G1 X124.469 Y97.983 E.54275
G1 X124.264 Y97.994 E.01048
G1 X123.704 Y98.083 E.02881
G1 X131.917 Y106.296 E.59064
G1 X131.891 Y106.465 E.00869
G1 X131.749 Y106.993 E.02779
G1 X123.007 Y98.251 E.62865
G1 X122.823 Y98.3 E.0097
M73 P6 R7
G1 X122.367 Y98.475 E.02484
G1 X131.525 Y107.633 E.65856
G1 X131.436 Y107.865 E.01265
G1 X131.252 Y108.225 E.02054
G1 X121.775 Y98.748 E.68155
G1 X121.478 Y98.899 E.01695
G1 X121.225 Y99.063 E.01531
G1 X130.937 Y108.775 E.69839
G1 X130.699 Y109.141 E.02219
G1 X130.582 Y109.285 E.00945
G1 X120.715 Y99.418 E.70959
G1 X120.286 Y99.765 E.02805
G1 X120.242 Y99.809 E.0032
G1 X130.191 Y109.758 E.71545
G1 X129.758 Y110.191 E.0311
G1 X119.809 Y100.242 E.71545
G1 X119.418 Y100.715 E.03123
G1 X129.285 Y110.582 E.70959
G1 X129.141 Y110.699 E.00944
M73 P7 R7
G1 X128.775 Y110.937 E.02219
G1 X119.063 Y101.225 E.69839
G1 X118.899 Y101.478 E.0153
G1 X118.748 Y101.775 E.01696
G1 X128.225 Y111.252 E.68154
G1 X127.865 Y111.436 E.02054
G1 X127.633 Y111.525 E.01266
G1 X118.475 Y102.367 E.65855
G1 X118.3 Y102.823 E.02484
G1 X118.251 Y103.008 E.00971
G1 X126.992 Y111.749 E.62864
G1 X126.465 Y111.891 E.02779
G1 X126.296 Y111.917 E.00869
G1 X118.083 Y103.704 E.59064
G1 X117.994 Y104.264 E.0288
G1 X117.983 Y104.47 E.01049
G1 X125.53 Y112.017 E.54274
G1 X125 Y112.045 E.02701
G1 X124.676 Y112.028 E.01648
G1 X117.972 Y105.324 E.4821
G1 X117.994 Y105.736 E.02102
M73 P8 R7
G1 X118.083 Y106.299 E.02898
G1 X123.701 Y111.917 E.40398
G1 X123.535 Y111.891 E.00851
G1 X122.823 Y111.7 E.03749
G1 X122.492 Y111.573 E.01806
G1 X118.427 Y107.508 E.29226
G1 X118.564 Y107.865 E.01944
G1 X118.899 Y108.522 E.03749
G1 X119.301 Y109.141 E.0375
G1 X119.752 Y109.698 E.03643
G1 X121.445 Y111.391 E.12176
M204 S1000
; stop printing object drill_jig_back_plug.STL id:0 copy 0
; printing object drill_jig_back_plug.STL id:0 copy 1
;WIPE_START
G1 F8640
G1 X119.752 Y109.698 E-.55289
G1 X119.301 Y109.141 E-.16544
G1 X118.899 Y108.522 E-.17026
G1 X118.778 Y108.285 E-.06141
;WIPE_END
G1 E-.05 F2100
G1 Z.4 F720
G1 X135.549 Y131.53 F10800
G1 Z.2 F720
G1 E1 F1500
M204 S800
;TYPE:Perimeter
;WIDTH:0.649999
G1 F1200
G1 X135.597 Y131.987 E.02321
G1 X135.597 Y132.771 E.03958
G1 X135.515 Y133.551 E.03958
G1 X135.352 Y134.318 E.03958
G1 X135.11 Y135.063 E.03958
G1 X134.791 Y135.78 E.03958
G1 X134.399 Y136.459 E.03958
G1 X133.938 Y137.093 E.03958
G1 X133.414 Y137.675 E.03958
G1 X132.831 Y138.2 E.03958
G1 X132.197 Y138.661 E.03958
G1 X131.518 Y139.053 E.03958
G1 X130.802 Y139.372 E.03958
G1 X130.056 Y139.614 E.03958
G1 X129.289 Y139.777 E.03958
G1 X128.509 Y139.859 E.03958
G1 X127.725 Y139.859 E.03958
G1 X126.946 Y139.777 E.03958
G1 X126.179 Y139.614 E.03958
G1 X125.433 Y139.372 E.03958
G1 X124.717 Y139.053 E.03958
G1 X124.038 Y138.661 E.03958
G1 X123.404 Y138.2 E.03958
G1 X122.821 Y137.675 E.03958
G1 X122.296 Y137.093 E.03958
G1 X121.836 Y136.459 E.03958
G1 X121.444 Y135.78 E.03958
G1 X121.125 Y135.063 E.03958
G1 X120.882 Y134.318 E.03958
G1 X120.719 Y133.551 E.03958
G1 X120.637 Y132.771 E.03958
G1 X120.637 Y131.987 E.03958
G1 X120.719 Y131.207 E.03958
G1 X120.882 Y130.44 E.03958
G1 X121.125 Y129.695 E.03958
G1 X121.444 Y128.979 E.03958
G1 X121.836 Y128.3 E.03958
G1 X122.296 Y127.665 E.03958
G1 X122.821 Y127.083 E.03958
G1 X123.404 Y126.558 E.03958
G1 X124.038 Y126.097 E.03958
G1 X124.717 Y125.705 E.03958
G1 X125.433 Y125.386 E.03958
G1 X126.179 Y125.144 E.03957
G1 X126.946 Y124.981 E.03958
G1 X127.725 Y124.899 E.03958
G1 X128.509 Y124.899 E.03958
G1 X129.289 Y124.981 E.03958
G1 X130.056 Y125.144 E.03958
G1 X130.802 Y125.386 E.03958
G1 X131.518 Y125.705 E.03958
G1 X132.197 Y126.097 E.03957
G1 X132.831 Y126.558 E.03958
G1 X133.414 Y127.083 E.03958
G1 X133.938 Y127.665 E.03958
G1 X134.399 Y128.3 E.03958
G1 X134.791 Y128.979 E.03958
G1 X135.11 Y129.695 E.03958
G1 X135.352 Y130.44 E.03957
G1 X135.515 Y131.207 E.03958
G1 X135.54 Y131.44 E.01182
M204 S1000
G1 X136.152 Y131.466 F10800
M204 S800
G1 F1200
G1 X136.204 Y131.955 E.02481
G1 X136.204 Y132.803 E.04278
G1 X136.115 Y133.646 E.04278
G1 X135.939 Y134.475 E.04278
G1 X135.677 Y135.281 E.04278
G1 X135.332 Y136.055 E.04278
G1 X134.908 Y136.789 E.04278
G1 X134.41 Y137.475 E.04278
G1 X133.843 Y138.105 E.04278
G1 X133.213 Y138.672 E.04278
G1 X132.528 Y139.17 E.04279
G1 X131.794 Y139.594 E.04278
G1 X131.019 Y139.939 E.04279
G1 X130.213 Y140.201 E.04278
G1 X129.384 Y140.377 E.04278
